packages/xm_dkfz_net_site/Resources/Public/Icons/linkedin.svg

<svg xmlns="http://www.w3.org/2000/svg" width="24" height="24" viewBox="0 0 24 24"><path d="M4.98 3.5c0 1.381-1.11 2.5-2.48 2.5s-2.48-1.119-2.48-2.5c0-1.38 1.11-2.5 2.48-2.5s2.48 1.12 2.48 2.5zm.02 4.5h-5v16h5v-16zm7.982 0h-4.968v16h4.969v-8.399c0-4.67 6.029-5.052 6.029 0v8.399h4.988v-10.131c0-7.88-8.922-7.593-11.018-3.714v-2.155z"/></svg>

<svg xmlns="http://www.w3.org/2000/svg" width="24" height="24" viewBox="0 0 24 24"><path d="M4.98 3.5C4.98 4.88 3.87 6 2.5 6S.02 4.88.02 3.5 1.13 1 2.5 1s2.48 1.12 2.48 2.5zM5 8H0v16h5V8zm7.98 0H8.01v16h4.97v-8.4c0-4.67 6.03-5.05 6.03 0V24H24V13.87c0-7.88-8.92-7.6-11.02-3.71V8z"/></svg>
